source/images/bits-t.svg

<svg width="77px" height="76px" viewBox="-2 -1 77 76" version="1.1" xmlns="http://www.w3.org/2000/svg" xmlns:xlink="http://www.w3.org/1999/xlink">
    <!-- Generator: Sketch 39.1 (31720) - http://www.bohemiancoding.com/sketch -->
    <desc>Created with Sketch.</desc>
    <defs></defs>
    <g id="Group-4" stroke="none" stroke-width="1" fill="none" fill-rule="evenodd" stroke-linecap="round" stroke-linejoin="round">
        <path d="M8.27898736,59.2653826 L15.4082746,71.887473 C16.0571648,73.0096478 17.492528,73.3928783 18.6142025,72.7439881 C18.9699164,72.5383644 19.2650939,72.2431869 19.4707176,71.887473 L34.695373,45.5571391 C35.3332566,44.429461 34.9370183,42.9975999 33.8088399,42.359216 C33.4686353,42.1660999 33.0849045,42.061537 32.6941696,42.0550331 L2.34041617,42 C1.04463694,42.0030018 -0.00349335536,43.0561351 8.75064969e-06,44.3519143 C0.00100935237,44.7551568 0.105572232,45.1513951 0.304691974,45.502106 L3.49160844,50.9053553 C3.90435665,51.6227867 4.66431366,52.0695554 5.49281188,52.0810623 L11.1211965,52.1155831" id="Stroke-15" stroke="#1D1D1B" stroke-width="2"></path>
        <path d="M47.2789874,17.2653826 L54.4082746,29.887473 C55.0571648,31.0096478 56.492528,31.3928783 57.6142025,30.7439881 C57.9699164,30.5383644 58.2650939,30.2431869 58.4707176,29.887473 L73.695373,3.55713911 C74.3332566,2.42946097 73.9370183,0.997599912 72.8088399,0.359216017 C72.4686353,0.166099885 72.0849045,0.0615370056 71.6941696,0.0550330945 L41.3404162,0 C40.0446369,0.00300180515 38.9965066,1.05613511 39.0000088,2.35191434 C39.0010094,2.75515683 39.1055722,3.15139511 39.304692,3.50210601 L42.4916084,8.90535529 C42.9043567,9.62278672 43.6643137,10.0695554 44.4928119,10.0810623 L50.1211965,10.1155831" id="Stroke-15" stroke="#1D1D1B" stroke-width="2"></path>
    </g>
</svg>

<svg xmlns="http://www.w3.org/2000/svg" viewBox="-2 -1 77 76">
  <g fill="none" fill-rule="evenodd" stroke="#1D1D1B" stroke-width="2" stroke-linecap="round" stroke-linejoin="round">
    <path class="bit-line" d="M8.28 59.27L15.4 71.9c.66 1.1 2.1 1.5 3.2.84.37-.2.67-.5.87-.85L34.7 45.55c.63-1.13.24-2.56-.9-3.2-.33-.2-.72-.3-1.1-.3L2.33 42C1.04 42 0 43.06 0 44.35c0 .4.1.8.3 1.15l3.2 5.4c.4.72 1.16 1.17 2 1.18l5.62.04"/>
    <path class="bit-line" d="M47.28 17.27L54.4 29.9c.66 1.1 2.1 1.5 3.2.84.37-.2.67-.5.87-.85L73.7 3.55c.63-1.13.24-2.56-.9-3.2-.33-.2-.72-.3-1.1-.3L41.33 0C40.04 0 39 1.06 39 2.35c0 .4.1.8.3 1.15l3.2 5.4c.4.72 1.16 1.17 2 1.18l5.62.04"/>
  </g>
</svg>
